!!!!SEGMENT: pl-cz--iii-672--001_scigalski-franciszek--tria-gradualia-lauda-sion.krn
!!!cenid: 18xx:1075
!!!COM: Ścigalski, Franciszek
!!!COM-rismID: pe30002948
!!!CDT: 1782/01/29-1846/09/27
!!!CNT: Polish
!!!GTL: Tria Gradualia
!!!OTL: Lauda sion
!!!OMV: 001
!!!PDT:
!!!AGN: Sacred
!!!SMS-siglum: PL-CZ
!!!SMS-shelfmark: III-672
!!!SMS-shelfwork: 001-001 G
!!!SMS-variant:
!!!SMS-altvar:
!!!NIFC-rismSourceID: 300001307
!!!NIFC-rismChildID: 300001308
!!!NIFC-islandoraID: pl-cz:39964
!!!URL-pdf-islandora: https://repozytorium.nifc.pl/islandora/object/pl-cz%3A39964/datastream/PDF/view
!!!URL-scan: https://polish.musicsources.pl/pl/lokalizacje/galeria/rekopisy/6976/1 @EN{Scan on Polish Music Sources Website} @PL{Skany w portalu Dziedzictwo Muzyki Polskiej w otwartym dostępie}
!!!ONB-nifc:
!!!AIN: 1 alto 1 bass 2 clars 2 cor 2 flt 1 organ 1 soprn 1 tenor 1 timpa 2 tromp 1 viola 2 violn
!!!key: C
**kern	**fba	**dynam	**kern	**dynam	**kern	**dynam	**kern	**dynam	**kern	**text	**dynam	**kern	**text	**dynam	**kern	**text	**dynam	**kern	**text	**dynam	**kern	**dynam	**kern	**dynam	**kern	**dynam	**kern	**dynam	**kern	**dynam	**kern	**dynam	**kern	**dynam	**kern	**kern
*	*	*	*group4	*	*group4	*	*group4	*	*group3	*	*	*group3	*	*	*group3	*	*	*group3	*	*	*	*	*group2	*	*group2	*	*group2	*	*group2	*	*group1	*	*group1	*	*group1	*group1
*part17	*part17	*part17	*part16	*part16	*part15	*part15	*part14	*part14	*part13	*part13	*part13	*part12	*part12	*part12	*part11	*part11	*part11	*part10	*part10	*part10	*part9	*part9	*part8	*part8	*part7	*part7	*part6	*part6	*part5	*part5	*part4	*part4	*part3	*part3	*part2	*part1
*staff17	*	*	*staff16	*	*staff15	*	*staff14	*	*staff13	*staff13	*	*staff12	*staff12	*	*staff11	*staff11	*	*staff10	*staff10	*	*staff9	*	*staff8	*	*staff7	*	*staff6	*	*staff5	*	*staff4	*	*staff3	*	*staff2	*staff1
*I"Organo.	*	*	*I"Viola.	*	*I"Violin 2.do	*	*I"Violin 1mo	*	*I"Basſo.	*	*	*I"Tenore	*	*	*I"Alto.	*	*	*I"Canto	*	*	*I"Tympani	*	*I"Clarino 2do	*	*I"Clarino 1mo	*	*I"Corno 2do	*	*I"Corno 1mo	*	*I"Clarinetto 2do	*	*I"Clarinetto 1mo	*	*I"Flauto 2do	*I"Flauto 1mo
*I'org	*	*	*I'vla	*	*I'vl 2	*	*I'vl 1	*	*I'B	*	*	*I'T	*	*	*I'A	*	*	*I'S	*	*	*I'timp	*	*I'clar 2	*	*I'clar 1	*	*I'cor 2	*	*I'cor 1	*	*I'cl 2	*	*I'cl 1	*	*I'fl 2	*I'fl 1
*Iorgan	*	*	*Iviola	*	*Ivioln	*	*Ivioln	*	*Ibass	*	*	*Itenor	*	*	*Ialto	*	*	*Isoprn	*	*	*Itimpa	*	*Itromp	*	*Itromp	*	*Icor	*	*Icor	*	*Iclars	*	*Iclars	*	*Iflt	*Iflt
*ICklav	*	*	*ICstr	*	*ICstr	*	*ICstr	*	*ICvox	*	*	*ICvox	*	*	*ICvox	*	*	*ICvox	*	*	*ICidio	*	*ICbras	*	*ICbras	*	*ICbras	*	*ICbras	*	*ICww	*	*ICww	*	*ICww	*ICww
*IGcont	*	*	*	*	*	*	*	*	*IGcoro	*	*	*IGcoro	*	*	*IGcoro	*	*	*IGcoro	*	*	*	*	*	*	*	*	*	*	*	*	*	*	*	*	*	*
*clefF4	*	*	*clefC3	*	*clefG2	*	*clefG2	*	*clefF4	*	*	*clefC4	*	*	*clefC3	*	*	*clefC1	*	*	*clefF4	*	*clefG2	*	*clefG2	*	*clefG2	*	*clefG2	*	*clefG2	*	*clefG2	*	*	*
*	*	*	*	*	*	*	*	*	*	*	*	*	*	*	*	*	*	*	*	*	*	*	*	*	*	*	*Trd0c0	*	*Trd0c0	*	*	*	*	*	*	*
*k[]	*	*	*k[]	*	*k[]	*	*k[]	*	*k[]	*	*	*k[]	*	*	*k[]	*	*	*k[]	*	*	*k[]	*	*k[]	*	*k[]	*	*k[]	*	*k[]	*	*k[]	*	*k[]	*	*	*
*C:	*	*	*C:	*	*C:	*	*C:	*	*C:	*	*	*C:	*	*	*C:	*	*	*C:	*	*	*C:	*	*C:	*	*C:	*	*C:	*	*C:	*	*C:	*	*C:	*	*	*
*M4/4	*	*	*M4/4	*	*M4/4	*	*M4/4	*	*M4/4	*	*	*M4/4	*	*	*M4/4	*	*	*M4/4	*	*	*M4/4	*	*M4/4	*	*M4/4	*	*M4/4	*	*M4/4	*	*M4/4	*	*M4/4	*	*	*
*met(c)	*	*	*met(c)	*	*met(c)	*	*met(c)	*	*met(c)	*	*	*met(c)	*	*	*met(c)	*	*	*met(c)	*	*	*met(c)	*	*met(c)	*	*met(c)	*	*met(c)	*	*met(c)	*	*met(c)	*	*met(c)	*	*	*
=1	=1	=1	=1	=1	=1	=1	=1	=1	=1	=1	=1	=1	=1	=1	=1	=1	=1	=1	=1	=1	=1	=1	=1	=1	=1	=1	=1	=1	=1	=1	=1	=1	=1	=1	=1	=1
!	!	!	!	!	!	!	!	!	!LO:TX:a:i:t=Sotto voce	!	!	!LO:TX:a:i:t=Sotto voce	!	!	!LO:TX:a:i:t=Sotto voce	!	!	!LO:TX:a:i:t=Sotto voce	!	!	!LO:TX:a:t=7.	!	!LO:TX:a:t=7.	!	!LO:TX:a:t=7.	!	!LO:TX:a:t=7.	!	!LO:TX:a:t=7.	!	!LO:TX:a:t=7.	!	!LO:TX:a:t=7.	!	!	!
!LO:TX:a:Bi:t=Andante. N° 1.	!	!LO:DY:rj	!LO:TX:a:i:t=N° 1. AndanteLO:TX:a:i:t=N° 1. Andante	!	!LO:TX:a:Bi:t=Andante. N° 1.	!LO:DY:rj	!LO:TX:a:Bi:t=Andante. N° 1.	!LO:DY:rj	!LO:TX:a:i:t=N° 1. Andante	!	!LO:DY:b	!LO:TX:a:i:t=N° 1. Andante	!	!LO:DY:b	!LO:TX:a:i:t=N° 1. Andante	!	!LO:DY:b	!LO:TX:a:i:t=N° 1. Andante	!	!LO:DY:b	!LO:TX:a:i:t=N° 1. Andante in C. G.	!	!LO:TX:a:i:t=N° 1. Andante in C.	!	!LO:TX:a:i:t=N° 1. Andante in C.	!	!LO:TX:a:i:t=N° 1. Andante in C.	!	!LO:TX:a:i:t=N° 1. Andante in C.	!	!LO:TX:a:i:t=N° 1. Andante Clar&colon; in C.	!	!LO:TX:a:i:t=N° 1. Andante Clar&colon; in C.	!	!LO:TX:a:i:t=Gradualia N° 1 et 2. tacent.	!LO:TX:a:i:t=Gradualia N° 1 et 2. tacent.
4C/	.	p	2r	p	4e 4G/	p	(8g/L	p	2r	.	.	2r	.	p	2r	.	p	2r	.	p	00r	.	00r	.	00r	.	00r	.	00r	.	00r	.	00r	.	1ryy	1ryy
.	.	.	.	.	.	.	8e/)	.	.	.	.	.	.	.	.	.	.	.	.	.	.	.	.	.	.	.	.	.	.	.	.	.	.	.	.	.
4r	.	.	.	.	4r	.	8c'/	.	.	.	.	.	.	.	.	.	.	.	.	.	.	.	.	.	.	.	.	.	.	.	.	.	.	.	.	.
.	.	.	.	.	.	.	8c'/J	.	.	.	.	.	.	.	.	.	.	.	.	.	.	.	.	.	.	.	.	.	.	.	.	.	.	.	.	.
4C/	8 3	.	4c/	.	4e/	.	4cc\	.	4C/	Lau-	.	4c\	Lau-	.	4e\	Lau-	.	4cc\	Lau-	.	.	.	.	.	.	.	.	.	.	.	.	.	.	.	.	.
4C/	6 4	.	4c/	.	4f/	.	4a\	.	4C/	-da	.	4c\	-da	.	4f\	-da	.	4a\	-da	.	.	.	.	.	.	.	.	.	.	.	.	.	.	.	.	.
=2	=2	=2	=2	=2	=2	=2	=2	=2	=2	=2	=2	=2	=2	=2	=2	=2	=2	=2	=2	=2	=2	=2	=2	=2	=2	=2	=2	=2	=2	=2	=2	=2	=2	=2	=2	=2
*	*	*	*	*	*	*	*	*	*	*	*	*2\right	*	*	*2\right	*	*	*	*	*	*	*	*	*	*	*	*	*	*	*	*	*	*	*	*	*
2C/	5 3	.	2c/	.	(8e/L	.	(8g/L	.	2C/	si-	.	2c\	Si-	.	2e\	Si-	.	2g/	Si-	.	.	.	.	.	.	.	.	.	.	.	.	.	.	.	1ryy	1ryy
.	.	.	.	.	8f/	.	8a/	.	.	.	.	.	.	.	.	.	.	.	.	.	.	.	.	.	.	.	.	.	.	.	.	.	.	.	.	.
.	.	.	.	.	8e/	.	8g/	.	.	.	.	.	.	.	.	.	.	.	.	.	.	.	.	.	.	.	.	.	.	.	.	.	.	.	.	.
.	.	.	.	.	8d/J)	.	8f/J)	.	.	.	.	.	.	.	.	.	.	.	.	.	.	.	.	.	.	.	.	.	.	.	.	.	.	.	.	.
4C/	3	.	4c/	.	(8c/L	.	(8e/L	.	4C/	-on	.	4c\	-on	.	4c\	-on	.	4e/	-on	.	.	.	.	.	.	.	.	.	.	.	.	.	.	.	.	.
.	.	.	.	.	8e/)	.	8g/	.	.	.	.	.	.	.	.	.	.	.	.	.	.	.	.	.	.	.	.	.	.	.	.	.	.	.	.	.
4r	.	.	4r	.	(8e/	.	8cc/	.	4r	.	.	4r	.	.	4r	.	.	4r	.	.	.	.	.	.	.	.	.	.	.	.	.	.	.	.	.	.
.	.	.	.	.	8c/J)	.	8e/J)	.	.	.	.	.	.	.	.	.	.	.	.	.	.	.	.	.	.	.	.	.	.	.	.	.	.	.	.	.
=3	=3	=3	=3	=3	=3	=3	=3	=3	=3	=3	=3	=3	=3	=3	=3	=3	=3	=3	=3	=3	=3	=3	=3	=3	=3	=3	=3	=3	=3	=3	=3	=3	=3	=3	=3	=3
2BB/	5 3	.	2G/	.	2d/	.	(8f/L	.	2BB/	Sal-	.	2G/	ſal-	.	2d\	Sal-	.	2f/	Sal-	.	.	.	.	.	.	.	.	.	.	.	.	.	.	.	1ryy	1ryy
.	.	.	.	.	.	.	8d/	.	.	.	.	.	.	.	.	.	.	.	.	.	.	.	.	.	.	.	.	.	.	.	.	.	.	.	.	.
.	.	.	.	.	.	.	8G/	.	.	.	.	.	.	.	.	.	.	.	.	.	.	.	.	.	.	.	.	.	.	.	.	.	.	.	.	.
.	.	.	.	.	.	.	8f/J)	.	.	.	.	.	.	.	.	.	.	.	.	.	.	.	.	.	.	.	.	.	.	.	.	.	.	.	.	.
2C/	3	.	2G/	.	2c/	.	(8e/L	.	2C/	-va-	.	2G/	-va-	.	2c\	-va-	.	2e/	-va-	.	.	.	.	.	.	.	.	.	.	.	.	.	.	.	.	.
.	.	.	.	.	.	.	8c/	.	.	.	.	.	.	.	.	.	.	.	.	.	.	.	.	.	.	.	.	.	.	.	.	.	.	.	.	.
.	.	.	.	.	.	.	8G/	.	.	.	.	.	.	.	.	.	.	.	.	.	.	.	.	.	.	.	.	.	.	.	.	.	.	.	.	.
.	.	.	.	.	.	.	8e/J)	.	.	.	.	.	.	.	.	.	.	.	.	.	.	.	.	.	.	.	.	.	.	.	.	.	.	.	.	.
=4	=4	=4	=4	=4	=4	=4	=4	=4	=4	=4	=4	=4	=4	=4	=4	=4	=4	=4	=4	=4	=4	=4	=4	=4	=4	=4	=4	=4	=4	=4	=4	=4	=4	=4	=4	=4
*	*	*	*	*	*	*	*	*	*2\right	*	*	*	*	*	*	*	*	*	*	*	*	*	*	*	*	*	*	*	*	*	*	*	*	*	*	*
2G\	6 4	.	2G/	.	4c/	.	(8e/L	.	2G\	-to-	.	2G/	-to-	.	2c\	-to-	.	2e/	-to-	.	.	.	.	.	.	.	.	.	.	.	.	.	.	.	1ryy	1ryy
.	.	.	.	.	.	.	8c/	.	.	.	.	.	.	.	.	.	.	.	.	.	.	.	.	.	.	.	.	.	.	.	.	.	.	.	.	.
.	.	.	.	.	(8B/L	.	8G/	.	.	.	.	.	.	.	.	.	.	.	.	.	.	.	.	.	.	.	.	.	.	.	.	.	.	.	.	.
.	.	.	.	.	8c/J)	.	8e/J)	.	.	.	.	.	.	.	.	.	.	.	.	.	.	.	.	.	.	.	.	.	.	.	.	.	.	.	.	.
!	!	!	!	!	!	!	!LO:LB:g=original	!	!	!	!	!	!	!	!	!	!	!	!	!	!	!	!	!	!	!	!	!	!	!	!	!	!	!	!	!
4GG/	5 3	.	4G/	.	4B/	.	(8d/L	.	4GG/	-rem	.	4G/	-rem	.	4B/	-rem	.	4d/	-rem	.	.	.	.	.	.	.	.	.	.	.	.	.	.	.	.	.
.	.	.	.	.	.	.	8g/	.	.	.	.	.	.	.	.	.	.	.	.	.	.	.	.	.	.	.	.	.	.	.	.	.	.	.	.	.
4r	.	.	4r	.	4r	.	8b/	.	4r	.	.	4r	.	.	4r	.	.	4r	.	.	.	.	.	.	.	.	.	.	.	.	.	.	.	.	.	.
.	.	.	.	.	.	.	8cc/J)	.	.	.	.	.	.	.	.	.	.	.	.	.	.	.	.	.	.	.	.	.	.	.	.	.	.	.	.	.
!LO:LB:g=original	!	!	!	!	!LO:LB:g=original	!	!	!	!LO:LB:g=original	!	!	!LO:LB:g=original	!	!	!LO:LB:g=original	!	!	!LO:LB:g=original	!	!	!	!	!	!	!	!	!	!	!	!	!	!	!	!	!	!
=5	=5	=5	=5	=5	=5	=5	=5	=5	=5	=5	=5	=5	=5	=5	=5	=5	=5	=5	=5	=5	=5	=5	=5	=5	=5	=5	=5	=5	=5	=5	=5	=5	=5	=5	=5	=5
4E\	.	.	2r	.	2e/	.	(8dd\L	.	2r	.	.	2r	.	.	2r	.	.	2r	.	.	0r	.	0r	.	0r	.	0r	.	0r	.	0r	.	0r	.	1ryy	1ryy
.	.	.	.	.	.	.	8cc\	.	.	.	.	.	.	.	.	.	.	.	.	.	.	.	.	.	.	.	.	.	.	.	.	.	.	.	.	.
4r	.	.	.	.	.	.	8b\	.	.	.	.	.	.	.	.	.	.	.	.	.	.	.	.	.	.	.	.	.	.	.	.	.	.	.	.	.
.	.	.	.	.	.	.	8a\J)	.	.	.	.	.	.	.	.	.	.	.	.	.	.	.	.	.	.	.	.	.	.	.	.	.	.	.	.	.
4E\	#	.	4B/	.	4g#X/	.	(8g#X\L	.	4E\	lau-	.	4e\	lau-	.	4g#X\	lau-	.	4b\	lau-	.	.	.	.	.	.	.	.	.	.	.	.	.	.	.	.	.
.	.	.	.	.	.	.	8b\	.	.	.	.	.	.	.	.	.	.	.	.	.	.	.	.	.	.	.	.	.	.	.	.	.	.	.	.	.
4G#X\	6 5	.	4d/	.	4b/	.	8ee\	.	4G#X\	-da	.	4e\	-da	.	4b\	-da	.	(8ee\L	-da	.	.	.	.	.	.	.	.	.	.	.	.	.	.	.	.	.
.	.	.	.	.	.	.	8dd\J)	.	.	.	.	.	.	.	.	.	.	8dd\J)	.	.	.	.	.	.	.	.	.	.	.	.	.	.	.	.	.	.
=6	=6	=6	=6	=6	=6	=6	=6	=6	=6	=6	=6	=6	=6	=6	=6	=6	=6	=6	=6	=6	=6	=6	=6	=6	=6	=6	=6	=6	=6	=6	=6	=6	=6	=6	=6	=6
*	*	*	*	*	*	*	*	*	*	*	*	*	*	*	*	*	*	*2\right	*	*	*	*	*	*	*	*	*	*	*	*	*	*	*	*	*	*
2A\	3	.	2c/	.	2a 2e/	.	(8cc/L	.	2A\	du-	.	2e\	du-	.	2a\	du-	.	2cc\	du-	.	.	.	.	.	.	.	.	.	.	.	.	.	.	.	1ryy	1ryy
.	.	.	.	.	.	.	8a/	.	.	.	.	.	.	.	.	.	.	.	.	.	.	.	.	.	.	.	.	.	.	.	.	.	.	.	.	.
.	.	.	.	.	.	.	8e/	.	.	.	.	.	.	.	.	.	.	.	.	.	.	.	.	.	.	.	.	.	.	.	.	.	.	.	.	.
.	.	.	.	.	.	.	8c/J)	.	.	.	.	.	.	.	.	.	.	.	.	.	.	.	.	.	.	.	.	.	.	.	.	.	.	.	.	.
4AA/	1	.	4c/	.	4e/	.	(8e/L	.	4AA/	-cem	.	4c\	-cem	.	4e\	-cem	.	4a\	-cem	.	.	.	.	.	.	.	.	.	.	.	.	.	.	.	.	.
.	.	.	.	.	.	.	8a/	.	.	.	.	.	.	.	.	.	.	.	.	.	.	.	.	.	.	.	.	.	.	.	.	.	.	.	.	.
4C/	.	.	4A/	.	4e 4c/	.	8cc/	.	4r	.	.	4r	.	.	4r	.	.	4r	.	.	.	.	.	.	.	.	.	.	.	.	.	.	.	.	.	.
.	.	.	.	.	.	.	8ee/J)	.	.	.	.	.	.	.	.	.	.	.	.	.	.	.	.	.	.	.	.	.	.	.	.	.	.	.	.	.
!	!	!	!LO:LB:g=original	!	!	!	!	!	!	!	!	!	!	!	!	!	!	!	!	!	!	!	!	!	!	!	!	!	!	!	!	!	!	!	!	!
=7	=7	=7	=7	=7	=7	=7	=7	=7	=7	=7	=7	=7	=7	=7	=7	=7	=7	=7	=7	=7	=7	=7	=7	=7	=7	=7	=7	=7	=7	=7	=7	=7	=7	=7	=7	=7
*	*	*	*2\right	*	*	*	*	*	*	*	*	*	*	*	*	*	*	*	*	*	*	*	*	*	*	*	*	*	*	*	*	*	*	*	*	*
2D\	6 4	.	2d\	.	2d 2B/	.	(8ee\L	.	2r	.	.	2r	.	.	2r	.	.	2r	.	.	1r	.	1r	.	1r	.	1r	.	1r	.	1r	.	1r	.	1ryy	1ryy
.	.	.	.	.	.	.	8dd\	.	.	.	.	.	.	.	.	.	.	.	.	.	.	.	.	.	.	.	.	.	.	.	.	.	.	.	.	.
.	.	.	.	.	.	.	8b\	.	.	.	.	.	.	.	.	.	.	.	.	.	.	.	.	.	.	.	.	.	.	.	.	.	.	.	.	.
.	.	.	.	.	.	.	8g\J)	.	.	.	.	.	.	.	.	.	.	.	.	.	.	.	.	.	.	.	.	.	.	.	.	.	.	.	.	.
4D\	8	.	4d\	.	4d 4c/	.	(8dd\L	.	4D\	et	.	4A\	et	.	4f#X\	et	.	4dd\	et	.	.	.	.	.	.	.	.	.	.	.	.	.	.	.	.	.
.	.	.	.	.	.	.	8cc\	.	.	.	.	.	.	.	.	.	.	.	.	.	.	.	.	.	.	.	.	.	.	.	.	.	.	.	.	.
4D\	#	.	4d\	.	4d 4c/	.	8a\	.	4D\	Pa-	.	4c\	Pa-	.	4d\	Pa-	.	4f#X/	Pa-	.	.	.	.	.	.	.	.	.	.	.	.	.	.	.	.	.
.	.	.	.	.	.	.	8f#X\J)	.	.	.	.	.	.	.	.	.	.	.	.	.	.	.	.	.	.	.	.	.	.	.	.	.	.	.	.	.
!	!	!	!	!	!	!	!LO:LB:g=original	!	!	!	!	!	!	!	!	!	!	!	!	!	!	!	!	!	!	!	!	!	!	!	!	!	!	!	!	!
=8	=8	=8	=8	=8	=8	=8	=8	=8	=8	=8	=8	=8	=8	=8	=8	=8	=8	=8	=8	=8	=8	=8	=8	=8	=8	=8	=8	=8	=8	=8	=8	=8	=8	=8	=8	=8
!	!	!	!	!	!	!	!	!LO:DY:t=fr&colon;	!	!	!	!	!	!	!	!	!	!	!	!	!	!	!	!	!	!	!	!	!	!	!	!	!	!LO:DY:t=fr.	!	!
2D\	5 #	.	2d\	f	2d 2c/	.	(2a/	f	2D\	-ſto-	.	2c\	-ſto-	.	2f#X\	-ſto-	.	2a\	-ſto-	.	2r	f	2r	f	2r	f	2r	f	2r	f	2r	f	2r	f	1ryy	1ryy
8G\L|	.	f	8g\L	.	8dL 8B/	.	8g/L)	.	4G\	-rem,	.	4B\	-rem,	.	4g\	-rem	.	4g\	-rem	.	4GG/	.	4G'/	.	4g/	.	4g'/	.	4g'/	.	4g'/	.	4gg'\	.	.	.
!	!	!	!	!	!	!LO:DY:rj:t=fr&colon;	!	!	!	!	!	!	!	!	!	!	!	!	!	!	!	!	!	!	!	!	!	!	!	!	!	!	!	!	!	!
8D\|	.	.	8d\	.	8d'/	f	8d'/	.	.	.	.	.	.	.	.	.	.	.	.	.	.	.	.	.	.	.	.	.	.	.	.	.	.	.	.	.
!	!	!	!	!	!	!	!	!	!	!	!LO:DY:b:rj	!	!	!LO:DY:b:rj	!	!	!LO:DY:rj	!	!	!LO:DY:rj:t=fr.:b	!	!	!	!	!	!	!	!	!	!	!	!	!	!	!	!
8BB\|	.	.	8B\	.	8B'/	.	8B'/	.	4G\	in	f	4B\	in	f	4g\	in	f	4g\	in	f	4GG/	.	4G'/	.	4g/	.	4g'/	.	4g/	.	4g'/	.	4gg'\	.	.	.
8D\J|	.	.	8d\J	.	8d'/J	.	8d'/J	.	.	.	.	.	.	.	.	.	.	.	.	.	.	.	.	.	.	.	.	.	.	.	.	.	.	.	.	.
=9	=9	=9	=9	=9	=9	=9	=9	=9	=9	=9	=9	=9	=9	=9	=9	=9	=9	=9	=9	=9	=9	=9	=9	=9	=9	=9	=9	=9	=9	=9	=9	=9	=9	=9	=9	=9
*	*	*	*	*	*	*	*	*	*	*	*	*	*	*	*	*	*	*	*	*	*	*	*	*	*	*	*	*	*	*	*	*	*2\right	*	*	*
!	!	!	!	!	!	!LO:DY:rj:t=fr&colon;	!LO:TX:t=P:problem=mixed beam	!	!	!	!	!	!	!	!	!	!	!	!	!	!	!	!	!	!	!	!	!	!	!	!	!	!	!	!	!
4GG/	5	.	4G/	.	2fn 2G/	f	8G'/L	.	2G\	Hym-	.	2B\	Hym-	.	2fn\	Hym-	.	2dd\	Hym-	.	4GG/	.	4G/	.	4g/	.	[1g	.	[1g	.	2f/	.	2dd\	.	1ryy	1ryy
.	.	.	.	.	.	.	(8dd\	.	.	.	.	.	.	.	.	.	.	.	.	.	.	.	.	.	.	.	.	.	.	.	.	.	.	.	.	.
4BB/	.	.	4B/	.	.	.	8cc#X\	.	.	.	.	.	.	.	.	.	.	.	.	.	8GG/L	.	8G/L	.	8g/L	.	.	.	.	.	.	.	.	.	.	.
.	.	.	.	.	.	.	8dd\J)	.	.	.	.	.	.	.	.	.	.	.	.	.	8GG/J	.	8G/J	.	8g/J	.	.	.	.	.	.	.	.	.	.	.
!LO:LB:g=original	!	!	!	!	!	!	!	!	!	!	!	!	!	!	!	!	!	!	!	!	!	!	!	!	!	!	!	!	!	!	!	!	!	!	!	!
4D\	7	.	4d\	.	4e 4G/	.	(8ccn\L	.	4G\	-niſ	.	4c\	-niſ	.	4e\	-nis	.	4cc\	-nis	.	4GG/	.	4G/	.	4g/	.	.	.	.	.	4e/	.	4cc\	.	.	.
.	.	.	.	.	.	.	8b\	.	.	.	.	.	.	.	.	.	.	.	.	.	.	.	.	.	.	.	.	.	.	.	.	.	.	.	.	.
4G\	3	.	4g\	.	4d 4G/	.	8a\	.	4G\	et	.	4d\	et	.	4d\	et	.	4b\	et	.	4GG/	.	4G/	.	4g/	.	.	.	.	.	4d/	.	4b\	.	.	.
.	.	.	.	.	.	.	8b\J)	.	.	.	.	.	.	.	.	.	.	.	.	.	.	.	.	.	.	.	.	.	.	.	.	.	.	.	.	.
!	!	!	!	!	!LO:LB:g=original	!	!	!	!LO:LB:g=original	!	!	!LO:LB:g=original	!	!	!LO:LB:g=original	!	!	!LO:LB:g=original	!	!	!	!	!	!	!	!	!	!	!	!	!	!	!	!	!	!
=10	=10	=10	=10	=10	=10	=10	=10	=10	=10	=10	=10	=10	=10	=10	=10	=10	=10	=10	=10	=10	=10	=10	=10	=10	=10	=10	=10	=10	=10	=10	=10	=10	=10	=10	=10	=10
2C\	8 3	.	2c\	.	2e 2G/	.	(8cc\L	.	4.c\	can-	.	4.c\	can-	.	4.e\	can-	.	4.cc\	can-	.	2C/	.	2c/	.	2g/	.	2g/]	.	2g/]	.	2e/	.	2cc\	.	1ryy	1ryy
.	.	.	.	.	.	.	8ee\)	.	.	.	.	.	.	.	.	.	.	.	.	.	.	.	.	.	.	.	.	.	.	.	.	.	.	.	.	.
.	5	.	.	.	.	.	(8g\	.	.	.	.	.	.	.	.	.	.	.	.	.	.	.	.	.	.	.	.	.	.	.	.	.	.	.	.	.
.	.	.	.	.	.	.	8cc\J)	.	8C/	-ti-	.	8c\	-ti-	.	8e\	-ti-	.	8g\	-ti-	.	.	.	.	.	.	.	.	.	.	.	.	.	.	.	.	.
8C\L	5_	.	4c\	.	4e 4G/	.	(8e/L	.	4C/	-cis	.	4c\	-cis	.	4e\	-cis	.	4g\	-cis	.	4C/	.	4c/	.	4g/	.	4g'/	.	4g'/	.	4g'/	.	4gg'\	.	.	.
8E\	.	.	.	.	.	.	8g/)	.	.	.	.	.	.	.	.	.	.	.	.	.	.	.	.	.	.	.	.	.	.	.	.	.	.	.	.	.
8G\	.	.	4c\	.	4e 4G/	.	(8c/	.	4C/	in	.	4c\	in	.	4e\	in	.	4g\	in	.	4C/	.	4c/	.	4g/	.	4g'/	.	4g'/	.	4g'/	.	4gg'\	.	.	.
8c\J	.	.	.	.	.	.	8e/J)	.	.	.	.	.	.	.	.	.	.	.	.	.	.	.	.	.	.	.	.	.	.	.	.	.	.	.	.	.
=11	=11	=11	=11	=11	=11	=11	=11	=11	=11	=11	=11	=11	=11	=11	=11	=11	=11	=11	=11	=11	=11	=11	=11	=11	=11	=11	=11	=11	=11	=11	=11	=11	=11	=11	=11	=11
!	!	!	!	!	!	!	!LO:TX:t=P:problem=mixed beam	!	!	!	!	!	!	!	!	!	!	!	!	!	!	!	!	!	!	!	!	!	!	!	!	!	!	!	!	!
4C\	10_ 5_	.	4C/	.	2g 2G/	.	8G'/L	.	2c\	Hym-	.	2c\	Hym-	.	2g\	Hym-	.	2ee\	Hym-	.	4C/	.	4c/	.	4g/	.	[1g	.	[1g	.	2g/	.	2ee\	.	1ryy	1ryy
.	.	.	.	.	.	.	(8ee\	.	.	.	.	.	.	.	.	.	.	.	.	.	.	.	.	.	.	.	.	.	.	.	.	.	.	.	.	.
4E\	.	.	4E/	.	.	.	8dd#X\	.	.	.	.	.	.	.	.	.	.	.	.	.	8C/L	.	8c/L	.	8g/L	.	.	.	.	.	.	.	.	.	.	.
.	.	.	.	.	.	.	8ee\J)	.	.	.	.	.	.	.	.	.	.	.	.	.	8C/J	.	8c/J	.	8g/J	.	.	.	.	.	.	.	.	.	.	.
4G\	5	.	4G/	.	4f 4G/	.	(8ddn\L	.	4c\	-niſ	.	4d\	-niſ	.	4f\	-niſ	.	4dd\	-nis	.	4C/	.	4c/	.	4g/	.	.	.	.	.	4f/	.	4dd\	.	.	.
.	.	.	.	.	.	.	8cc\	.	.	.	.	.	.	.	.	.	.	.	.	.	.	.	.	.	.	.	.	.	.	.	.	.	.	.	.	.
4c\|	.	.	4c/	.	4e 4G/	.	8b\	.	4c\	et	.	4e\	et	.	4e\	et	.	4cc\	et	.	4C/	.	4c/	.	4g/	.	.	.	.	.	4e/	.	4cc\	.	.	.
.	.	.	.	.	.	.	8cc\J)	.	.	.	.	.	.	.	.	.	.	.	.	.	.	.	.	.	.	.	.	.	.	.	.	.	.	.	.	.
!	!	!	!	!	!	!	!LO:LB:g=original	!	!	!	!	!	!	!	!	!	!	!	!	!	!	!	!	!	!	!	!	!	!	!	!	!	!	!	!	!
=12	=12	=12	=12	=12	=12	=12	=12	=12	=12	=12	=12	=12	=12	=12	=12	=12	=12	=12	=12	=12	=12	=12	=12	=12	=12	=12	=12	=12	=12	=12	=12	=12	=12	=12	=12	=12
2G\|	5	.	2G/	.	2f 2G/	.	(8dd\L	.	4.G\	can-	.	4.d\	Can-	.	4.f\	can-	.	4.dd\	can-	.	2GG/	.	2G/	.	2g/	.	2g/]	.	2g/]	.	2f/	.	2dd\	.	1ryy	1ryy
.	.	.	.	.	.	.	8ff\)	.	.	.	.	.	.	.	.	.	.	.	.	.	.	.	.	.	.	.	.	.	.	.	.	.	.	.	.	.
.	.	.	.	.	.	.	(8b\	.	.	.	.	.	.	.	.	.	.	.	.	.	.	.	.	.	.	.	.	.	.	.	.	.	.	.	.	.
.	.	.	.	.	.	.	8dd\J)	.	8G\	-ti-	.	8d\	-ti-	.	8f\	-ti-	.	8g\	-ti-	.	.	.	.	.	.	.	.	.	.	.	.	.	.	.	.	.
8G\L|	.	.	4G/	.	4f 4G/	.	(8g/L	.	4G\	-ciſ	.	4d\	-cis	.	4f\	-cis	.	4g\	-cis	.	4GG/	.	4G/	.	4g/	.	4g'/	.	4g'/	.	4g'/	.	4gg'\	.	.	.
8D\|	.	.	.	.	.	.	8b/)	.	.	.	.	.	.	.	.	.	.	.	.	.	.	.	.	.	.	.	.	.	.	.	.	.	.	.	.	.
8BB\|	.	.	4G/	.	4f 4G/	.	(8d/	.	4G\	in	.	4d\	in	.	4g\	in	.	4g\	in	.	4GG/	.	4G/	.	4g/	.	4g'/	.	4g'/	.	4g'/	.	4gg'\	.	.	.
8D\J|	.	.	.	.	.	.	8g/J)	.	.	.	.	.	.	.	.	.	.	.	.	.	.	.	.	.	.	.	.	.	.	.	.	.	.	.	.	.
=13	=13	=13	=13	=13	=13	=13	=13	=13	=13	=13	=13	=13	=13	=13	=13	=13	=13	=13	=13	=13	=13	=13	=13	=13	=13	=13	=13	=13	=13	=13	=13	=13	=13	=13	=13	=13
*	*	*	*	*	*	*	*	*	*	*	*	*	*	*	*	*	*	*	*	*	*	*	*	*	*	*	*	*	*2\right	*	*2\right	*	*	*	*	*
!	!	!	!	!	!	!	!LO:TX:t=P:problem=mixed beam	!	!	!	!	!	!	!	!	!	!	!	!	!	!	!	!	!	!	!	!	!	!	!	!	!	!	!	!	!
4GG/	7_ 3_	.	2G/	.	2d 2G/	.	8G'/L	.	2G\	Hym-	.	2d\	Hym-	.	2b\	Hym-	.	2ff\	Hym-	.	2GG/	.	2G/	.	2g/	.	2g/	.	2dd\	.	2b\	.	2ff\	.	1ryy	1ryy
.	.	.	.	.	.	.	(8ff\	.	.	.	.	.	.	.	.	.	.	.	.	.	.	.	.	.	.	.	.	.	.	.	.	.	.	.	.	.
4G\	.	.	.	.	.	.	8ee\	.	.	.	.	.	.	.	.	.	.	.	.	.	.	.	.	.	.	.	.	.	.	.	.	.	.	.	.	.
.	.	.	.	.	.	.	8ff\J)	.	.	.	.	.	.	.	.	.	.	.	.	.	.	.	.	.	.	.	.	.	.	.	.	.	.	.	.	.
4A\	5 3	.	4A/	.	4e 4G/	.	(8ee\L	.	4A\	-niſ	.	4e\	-niſ	.	4cc\	-nis	.	4ee\	-nis	.	4r	.	4r	.	4r	.	4r	.	4r	.	4cc\	.	4ee\	.	.	.
.	.	.	.	.	.	.	8dd\	.	.	.	.	.	.	.	.	.	.	.	.	.	.	.	.	.	.	.	.	.	.	.	.	.	.	.	.	.
4B\	3	.	4B/	.	4f 4G/	.	8cc#X\	.	4B\	et	.	4f\	et	.	4dd\	et	.	4dd\	et	.	4GG/	.	4G/	.	4g/	.	4g/	.	4dd\	.	4dd\	.	4dd\	.	.	.
.	.	.	.	.	.	.	8dd\J)	.	.	.	.	.	.	.	.	.	.	.	.	.	.	.	.	.	.	.	.	.	.	.	.	.	.	.	.	.
!LO:LB:g=original	!	!	!	!	!	!	!	!	!LO:LB:g=original	!	!	!LO:LB:g=original	!	!	!LO:LB:g=original	!	!	!LO:LB:g=original	!	!	!LO:LB:g=original	!	!LO:LB:g=original	!	!LO:LB:g=original	!	!	!	!	!	!	!	!LO:LB:g=original	!	!	!
=14	=14	=14	=14	=14	=14	=14	=14	=14	=14	=14	=14	=14	=14	=14	=14	=14	=14	=14	=14	=14	=14	=14	=14	=14	=14	=14	=14	=14	=14	=14	=14	=14	=14	=14	=14	=14
4c\	3	.	4c/	.	4g 4G/	.	4ee\	.	4c\	can-	.	4e\	can-	.	4g\	can-	.	4ee\	can-	.	4C/	.	4c/	.	4cc\	.	4cc\	.	4ee\	.	4g'/	.	4ee'\	.	1ryy	1ryy
4G#X\	5	.	4G#X/	.	4f/	.	4dd\	.	4G#X\	-ti-	.	4B\	-ti-	.	4f\	-ti-	.	4dd\	-ti-	.	4r	.	4r	.	4r	.	4r	.	4r	.	4f'/	.	4dd'\	.	.	.
4A\	3	.	4A/	.	4e/	.	4ccn\	.	4A\	-ciſ	.	4c\	-cis	.	4e\	-cis	.	4cc\	-cis	.	2r	.	2r	.	2r	.	2r	.	2r	.	4e'/	.	4cc'\	.	.	.
4F\	6	.	4F/	.	4f/	.	4dd\	.	4F\	et	.	4A\	et	.	4f\	et	.	4dd\	et	.	.	.	.	.	.	.	.	.	.	.	4f'/	.	4dd'\	.	.	.
!	!	!	!LO:LB:g=original	!	!LO:LB:g=original	!	!	!	!	!	!	!	!	!	!	!	!	!	!	!	!	!	!	!	!	!	!	!	!	!	!LO:LB:g=original	!	!	!	!	!
=15	=15	=15	=15	=15	=15	=15	=15	=15	=15	=15	=15	=15	=15	=15	=15	=15	=15	=15	=15	=15	=15	=15	=15	=15	=15	=15	=15	=15	=15	=15	=15	=15	=15	=15	=15	=15
*	*	*	*	*	*	*	*	*	*	*	*	*	*	*	*	*	*	*	*	*	*	*	*	*	*2\right	*	*2\right	*	*	*	*	*	*	*	*	*
2Gn\	4	.	2Gn/	.	(8e/L	.	(8ee\L	.	2Gn\	can-	.	2c\	can-	.	2g\	Can-	.	2ee\	can-	.	4C/	.	2e/	.	2cc\	.	2cc\	.	2ee\	.	2g/	.	2ee\	.	1ryy	1ryy
.	.	.	.	.	8g/	.	8gg\	.	.	.	.	.	.	.	.	.	.	.	.	.	.	.	.	.	.	.	.	.	.	.	.	.	.	.	.	.
.	.	.	.	.	8e/	.	8ee\	.	.	.	.	.	.	.	.	.	.	.	.	.	4r	.	.	.	.	.	.	.	.	.	.	.	.	.	.	.
.	.	.	.	.	8c/J)	.	8cc\J)	.	.	.	.	.	.	.	.	.	.	.	.	.	.	.	.	.	.	.	.	.	.	.	.	.	.	.	.	.
8GG/L	3_	.	8G/L	.	2f 2G/	.	(8b/L	.	2GG/	-ti-	.	2d\	-ti-	.	2f\	-ti-	.	2b\	-ti-	.	4GG/	.	2g/	.	2dd\	.	2g/	.	2dd\	.	2f/	.	2b\	.	.	.
8BB/	.	.	8B/	.	.	.	8g/	.	.	.	.	.	.	.	.	.	.	.	.	.	.	.	.	.	.	.	.	.	.	.	.	.	.	.	.	.
8D/	.	.	8d/	.	.	.	8f/	.	.	.	.	.	.	.	.	.	.	.	.	.	4r	.	.	.	.	.	.	.	.	.	.	.	.	.	.	.
8G/J	.	.	8g/J	.	.	.	8d/J)	.	.	.	.	.	.	.	.	.	.	.	.	.	.	.	.	.	.	.	.	.	.	.	.	.	.	.	.	.
!	!	!	!	!	!	!	!LO:LB:g=original	!	!	!	!	!	!	!	!	!	!	!	!	!	!	!	!	!	!	!	!LO:LB:g=original	!	!LO:LB:g=original	!	!	!	!	!	!	!
=16	=16	=16	=16	=16	=16	=16	=16	=16	=16	=16	=16	=16	=16	=16	=16	=16	=16	=16	=16	=16	=16	=16	=16	=16	=16	=16	=16	=16	=16	=16	=16	=16	=16	=16	=16	=16
4C/	8 3	.	4c/	.	4e 4G/	.	8c'/L	.	4C/	-cis	.	4e\	-cis	.	4e\	-ciſ	.	4cc\	-cis,	.	4C/	.	4e/	.	4cc\	.	4e/	.	4cc\	.	4e/	.	4cc\	.	1ryy	1ryy
.	.	.	.	.	.	.	(8b/	.	.	.	.	.	.	.	.	.	.	.	.	.	.	.	.	.	.	.	.	.	.	.	.	.	.	.	.	.
4r	.	.	4r	.	4r	.	8cc/	.	4r	.	.	4r	.	.	4r	.	.	4r	.	.	4r	.	4r	.	4r	.	4r	.	4r	.	4r	.	4r	.	.	.
.	.	.	.	.	.	.	8dd/J)	.	.	.	.	.	.	.	.	.	.	.	.	.	.	.	.	.	.	.	.	.	.	.	.	.	.	.	.	.
!	!	!	!	!LO:HP:a	!	!LO:HP:a	!	!	!	!	!	!	!	!	!	!	!	!	!	!	!	!	!	!LO:HP:a	!	!LO:HP:a	!	!LO:HP:a	!	!	!	!LO:HP:a	!	!LO:HP:a	!	!
2C/	-7 3	>]	2c 2C/	>]	2b-X 2g/	>]	(8b-X\L	>	2r	.	.	2r	.	.	2r	.	.	2r	.	.	2CT/	>]	[2c/	>]	[2cc\	>]	2c/	>]	2cc\	>]	2b-X\	>]	2ee\	>]	.	.
.	.	.	.	.	.	.	8a\	.	.	.	.	.	.	.	.	.	.	.	.	.	.	.	.	.	.	.	.	.	.	.	.	.	.	.	.	.
.	.	.	.	.	.	.	8b-\	.	.	.	.	.	.	.	.	.	.	.	.	.	.	.	.	.	.	.	.	.	.	.	.	.	.	.	.	.
!	!	!	!	!	!	!	!	!	!	!	!	!	!	!	!	!	!	!	!	!	!	!	!	!	!	!LO:DY:t=p.	!	!	!	!	!	!	!	!	!	!
.	.	.	.	.	.	.	8cc\J)	]	.	.	.	.	.	.	.	.	.	.	.	.	.	.	.	.	.	p	.	.	.	.	.	.	.	.	.	.
=17	=17	=17	=17	=17	=17	=17	=17	=17	=17	=17	=17	=17	=17	=17	=17	=17	=17	=17	=17	=17	=17	=17	=17	=17	=17	=17	=17	=17	=17	=17	=17	=17	=17	=17	=17	=17
!	!	!LO:DY:rj	!	!LO:DY:rj	!	!LO:DY:rj:t=p.	!	!LO:DY:rj	!	!	!LO:DY:b:rj:t=p.	!	!	!LO:DY:b:rj	!	!	!LO:DY:b:t=p.:rj	!	!	!	!	!	!	!	!	!	!	!LO:DY:rj	!	!	!	!LO:DY:rj	!	!	!	!
4F\	3	p	4c/	p	(8f/L	p	(8a/L	p	2.F\	quan-	p	2.c\	Quan-	p	2.f\	quan-	p	2.a\	quan-	.	4C/	p	4c/]	p	4cc\]	.	4c/	p	4cc\	p	4a/	p	4ff\	p	1ryy	1ryy
.	.	.	.	.	8c/	.	8f/	.	.	.	.	.	.	.	.	.	.	.	.	.	.	.	.	.	.	.	.	.	.	.	.	.	.	.	.	.
4r	.	.	4r	.	8A/	.	8c/	.	.	.	.	.	.	.	.	.	.	.	.	.	4r	.	4r	.	4r	.	4r	.	4r	.	4r	.	4r	.	.	.
.	.	.	.	.	8c/J)	.	8f/J)	.	.	.	.	.	.	.	.	.	.	.	.	.	.	.	.	.	.	.	.	.	.	.	.	.	.	.	.	.
!LO:TX:a:i:t=Tasto.	!	!	!	!	!	!	!	!	!	!	!	!	!	!	!	!	!	!	!	!	!	!	!	!	!	!	!	!	!	!	!	!	!	!	!	!
4F\	.	.	4c/	.	8f'/L	.	(8A/L	.	.	.	.	.	.	.	.	.	.	.	.	.	2r	.	2r	.	2r	.	2r	.	2r	.	2r	.	2r	.	.	.
.	.	.	.	.	(8A/	.	8c/	.	.	.	.	.	.	.	.	.	.	.	.	.	.	.	.	.	.	.	.	.	.	.	.	.	.	.	.	.
4r	.	.	4r	.	8c/	.	8f/	.	4F\	-tum	.	4c\	-tum	.	4f\	-tum	.	4a\	-tum	.	.	.	.	.	.	.	.	.	.	.	.	.	.	.	.	.
.	.	.	.	.	8f/J)	.	8a/J)	.	.	.	.	.	.	.	.	.	.	.	.	.	.	.	.	.	.	.	.	.	.	.	.	.	.	.	.	.
!LO:LB:g=original	!	!	!	!	!	!	!	!	!	!	!	!	!	!	!	!	!	!	!	!	!	!	!	!	!	!	!	!	!	!	!	!	!	!	!	!
=18	=18	=18	=18	=18	=18	=18	=18	=18	=18	=18	=18	=18	=18	=18	=18	=18	=18	=18	=18	=18	=18	=18	=18	=18	=18	=18	=18	=18	=18	=18	=18	=18	=18	=18	=18	=18
!	!	!	!	!	!	!	!	!	!	!	!	!	!	!	!	!	!	!	!	!	!LO:TX:a:t=6	!	!LO:TX:a:t=6.	!	!LO:TX:a:t=6.	!	!LO:TX:a:t=6.	!	!LO:TX:a:t=6.	!	!LO:TX:a:t=6.	!	!LO:TX:a:t=6.	!	!	!
4F\	.	.	4c/	.	4f/	.	(4a/	.	2F\	po-	.	(4c\	po-	.	(4f\	po-	.	(4a\	po-	.	00r	.	00r	.	00r	.	00r	.	00r	.	00r	.	00r	.	1ryy	1ryy
4r	.	.	4r	.	4.g/	.	4b-X/)	.	.	.	.	4d\)	.	.	4g\)	.	.	4b-X\)	.	.	.	.	.	.	.	.	.	.	.	.	.	.	.	.	.	.
4F\	.	.	4d\	.	.	.	2b-/	.	2F\	-tes	.	(4d\	-tes	.	2g\	-tes	.	2b-\	-tes	.	.	.	.	.	.	.	.	.	.	.	.	.	.	.	.	.
.	.	.	.	.	(8d/L	.	.	.	.	.	.	.	.	.	.	.	.	.	.	.	.	.	.	.	.	.	.	.	.	.	.	.	.	.	.	.
4r	.	.	4r	.	8g/	.	.	.	.	.	.	4d-X\)	.	.	.	.	.	.	.	.	.	.	.	.	.	.	.	.	.	.	.	.	.	.	.	.
.	.	.	.	.	8f/J)	.	.	.	.	.	.	.	.	.	.	.	.	.	.	.	.	.	.	.	.	.	.	.	.	.	.	.	.	.	.	.
!	!	!	!	!	!LO:LB:g=original	!	!	!	!LO:LB:g=original	!	!	!LO:LB:g=original	!	!	!LO:LB:g=original	!	!	!LO:LB:g=original	!	!	!	!	!	!	!	!	!	!	!	!	!	!	!	!	!	!
=19	=19	=19	=19	=19	=19	=19	=19	=19	=19	=19	=19	=19	=19	=19	=19	=19	=19	=19	=19	=19	=19	=19	=19	=19	=19	=19	=19	=19	=19	=19	=19	=19	=19	=19	=19	=19
4E\	.	.	4d\	.	(4g/	.	(4b-X\	.	2.E\	tan-	.	2.c\	tan-	.	(4g\	tan-	.	(4b-X\	tan-	.	.	.	.	.	.	.	.	.	.	.	.	.	.	.	1ryy	1ryy
4r	.	.	4r	.	4b-X/	.	4dd\	.	.	.	.	.	.	.	4b-X\	.	.	4dd\	.	.	.	.	.	.	.	.	.	.	.	.	.	.	.	.	.	.
4E\	.	.	4d\	.	4a/	.	4cc\	.	.	.	.	.	.	.	4a\)	.	.	4cc\)	.	.	.	.	.	.	.	.	.	.	.	.	.	.	.	.	.	.
4r	.	.	4c\	.	4g/)	.	4b-\)	.	4E\	-tum	.	4c\	-tum	.	4g\	-tum	.	4b-\	-tum	.	.	.	.	.	.	.	.	.	.	.	.	.	.	.	.	.
!	!	!	!	!	!	!	!LO:LB:g=original	!	!	!	!	!	!	!	!	!	!	!	!	!	!	!	!	!	!	!	!	!	!	!	!	!	!	!	!	!
=20	=20	=20	=20	=20	=20	=20	=20	=20	=20	=20	=20	=20	=20	=20	=20	=20	=20	=20	=20	=20	=20	=20	=20	=20	=20	=20	=20	=20	=20	=20	=20	=20	=20	=20	=20	=20
4E\	.	.	4c\	.	(4g/	.	(4b-X\	.	(4E\	au-	.	2c\	au-	.	(4g\	au-	.	(4b-X\	au-	.	.	.	.	.	.	.	.	.	.	.	.	.	.	.	1ryy	1ryy
4F\	.	.	4r	.	4f/)	.	4a\)	.	4F\)	.	.	.	.	.	4f\)	.	.	4a\)	.	.	.	.	.	.	.	.	.	.	.	.	.	.	.	.	.	.
8F\L	.	.	4c\	.	4f/	.	8a/L	.	2F\	-de	.	2c\	-de	.	2f\	-de	.	2a\	-de	.	.	.	.	.	.	.	.	.	.	.	.	.	.	.	.	.
8AA\	.	.	.	.	.	.	(8A/	.	.	.	.	.	.	.	.	.	.	.	.	.	.	.	.	.	.	.	.	.	.	.	.	.	.	.	.	.
8C\	.	.	4r	.	(8A/L	.	8c/	.	.	.	.	.	.	.	.	.	.	.	.	.	.	.	.	.	.	.	.	.	.	.	.	.	.	.	.	.
8F\J	.	.	.	.	8c/J)	.	8f/J)	.	.	.	.	.	.	.	.	.	.	.	.	.	.	.	.	.	.	.	.	.	.	.	.	.	.	.	.	.
=21	=21	=21	=21	=21	=21	=21	=21	=21	=21	=21	=21	=21	=21	=21	=21	=21	=21	=21	=21	=21	=21	=21	=21	=21	=21	=21	=21	=21	=21	=21	=21	=21	=21	=21	=21	=21
2A\	.	.	4c#X\	.	1g	.	2a/	.	2.A\	qui-	.	2c#X\	qui-	.	2g\	qui-	.	2a\	qui-	.	.	.	.	.	.	.	.	.	.	.	.	.	.	.	1ryy	1ryy
.	.	.	4r	.	.	.	.	.	.	.	.	.	.	.	.	.	.	.	.	.	.	.	.	.	.	.	.	.	.	.	.	.	.	.	.	.
4r	.	.	4d\	.	.	.	(4bn\	.	.	.	.	(4d\	-a	.	2g\	-a	.	(4bn\	-a	.	.	.	.	.	.	.	.	.	.	.	.	.	.	.	.	.
4G\	.	.	4e\	.	.	.	4cc#X\)	.	4G\	-a	.	4e\)	.	.	.	.	.	4cc#X\)	.	.	.	.	.	.	.	.	.	.	.	.	.	.	.	.	.	.
!LO:LB:g=original	!	!	!	!	!	!	!	!	!	!	!	!	!	!	!	!	!	!	!	!	!	!	!	!	!	!	!	!	!	!	!	!	!	!	!	!
=22	=22	=22	=22	=22	=22	=22	=22	=22	=22	=22	=22	=22	=22	=22	=22	=22	=22	=22	=22	=22	=22	=22	=22	=22	=22	=22	=22	=22	=22	=22	=22	=22	=22	=22	=22	=22
(4F\	.	.	4d\	.	1a	.	4dd\	.	(4F\	ma-	.	(4d\	ma-	.	2a\	ma-	.	(4dd\	ma-	.	0r	.	0r	.	0r	.	0r	.	0r	.	0r	.	0r	.	1ryy	1ryy
4E\)	.	.	4c#X\	.	.	.	4ee\	.	4E\)	.	.	4c#X\)	.	.	.	.	.	4ee\)	.	.	.	.	.	.	.	.	.	.	.	.	.	.	.	.	.	.
2D\	.	.	2d\	.	.	.	2ff\	.	2D\	-jor	.	2d\	-jor	.	2a\	-jor	.	2ff\	-jor	.	.	.	.	.	.	.	.	.	.	.	.	.	.	.	.	.
!	!	!	!LO:LB:g=original	!	!	!	!	!	!	!	!	!	!	!	!	!	!	!	!	!	!	!	!	!	!	!	!	!	!	!	!	!	!	!	!	!
=23	=23	=23	=23	=23	=23	=23	=23	=23	=23	=23	=23	=23	=23	=23	=23	=23	=23	=23	=23	=23	=23	=23	=23	=23	=23	=23	=23	=23	=23	=23	=23	=23	=23	=23	=23	=23
4G\	.	.	4cn/	.	4g/	.	2ee\	.	4G\	om-	.	4cn\	om-	.	4g\	om-	.	4ee\	om-	.	.	.	.	.	.	.	.	.	.	.	.	.	.	.	1ryy	1ryy
4G\	.	.	4c/	.	4g/	.	.	.	4G\	-ni	.	4c\	-ni	.	4g\	-ni	.	4ee\	-ni	.	.	.	.	.	.	.	.	.	.	.	.	.	.	.	.	.
.	.	.	.	.	.	.	8qee/	.	.	.	.	.	.	.	.	.	.	8qee/	.	.	.	.	.	.	.	.	.	.	.	.	.	.	.	.	.	.
8GG/L	.	.	2Bn/	.	2f 2G/	.	(8dd\L	.	2GG/	lau-	.	2Bn\	lau-	.	2f\	lau-	.	(8dd\L	lau-	.	.	.	.	.	.	.	.	.	.	.	.	.	.	.	.	.
8BBn/	.	.	.	.	.	.	8cc#X\	.	.	.	.	.	.	.	.	.	.	8cc#X\	.	.	.	.	.	.	.	.	.	.	.	.	.	.	.	.	.	.
8D/	.	.	.	.	.	.	8dd\	.	.	.	.	.	.	.	.	.	.	8dd\	.	.	.	.	.	.	.	.	.	.	.	.	.	.	.	.	.	.
8G/J	.	.	.	.	.	.	8ee\J)	.	.	.	.	.	.	.	.	.	.	8ee\J)	.	.	.	.	.	.	.	.	.	.	.	.	.	.	.	.	.	.
!	!	!	!	!	!	!	!	!	!	!	!	!	!	!	!	!	!	!LO:LB:g=original	!	!	!	!	!	!	!	!	!	!	!	!	!	!	!	!	!	!
=24	=24	=24	=24	=24	=24	=24	=24	=24	=24	=24	=24	=24	=24	=24	=24	=24	=24	=24	=24	=24	=24	=24	=24	=24	=24	=24	=24	=24	=24	=24	=24	=24	=24	=24	=24	=24
4C/	.	.	4G/	.	4e 4G/	.	(8ccn\L	.	4C/	-de	.	4G/	-de	.	4e\	-de	.	4ccn\	-de	.	2r	f	2r	f	2r	f	2r	f	2r	f	2r	f	2r	.	1ryy	1ryy
.	.	.	.	.	.	.	8b\	.	.	.	.	.	.	.	.	.	.	.	.	.	.	.	.	.	.	.	.	.	.	.	.	.	.	.	.	.
4r	.	.	4r	.	4r	.	8cc\	.	4r	.	.	4r	.	.	4r	.	.	4r	.	.	.	.	.	.	.	.	.	.	.	.	.	.	.	.	.	.
.	.	.	.	.	.	.	8dd\J)	.	.	.	.	.	.	.	.	.	.	.	.	.	.	.	.	.	.	.	.	.	.	.	.	.	.	.	.	.
!	!	!	!	!LO:DY:rj	!	!	!LO:LB:g=original	!	!	!	!	!	!	!	!	!	!	!	!	!	!	!	!	!	!	!	!	!	!	!	!	!	!	!LO:DY:rj	!	!
8c\L|	.	<	8e\L	f	(8e/L	<	(>8cc/L	>	2r	.	.	2r	.	.	2r	.	.	2r	.	.	4GG/	.	4G/	.	4g/	.	4g'/	.	4g'/	.	4g'/	.	4gg'\	f	.	.
8G\|	.	.	8g\	.	8g/	.	8g/	.	.	.	.	.	.	.	.	.	.	.	.	.	.	.	.	.	.	.	.	.	.	.	.	.	.	.	.	.
8E\|	.	.	8e\	.	8e/	.	8e/	.	.	.	.	.	.	.	.	.	.	.	.	.	4GG/	.	4G/	.	4g/	.	4g'/	.	4g'/	.	4g'/	.	4gg'\	.	.	.
8C\J|	.	[[	8c\J	.	8c/J)	[[	8c/J)	]]	.	.	.	.	.	.	.	.	.	.	.	.	.	.	.	.	.	.	.	.	.	.	.	.	.	.	.	.
!	!	!	!	!	!LO:LB:g=original	!	!	!	!LO:LB:g=original	!	!	!LO:LB:g=original	!	!	!LO:LB:g=original	!	!	!	!	!	!	!	!	!	!	!	!	!	!	!	!	!	!	!	!	!
=25	=25	=25	=25	=25	=25	=25	=25	=25	=25	=25	=25	=25	=25	=25	=25	=25	=25	=25	=25	=25	=25	=25	=25	=25	=25	=25	=25	=25	=25	=25	=25	=25	=25	=25	=25	=25
!	!	!LO:DY:t=fr&colon;:rj	!	!	!	!LO:DY:t=fr&colon;:rj	!LO:TX:t=P:problem=mixed beam	!LO:DY:rj:t=fr&colon;	!	!	!LO:DY:t=fr.:rj:b	!	!	!LO:DY:b:rj	!	!	!LO:DY:rj:b	!	!	!LO:DY:b:t=fr.:rj	!	!	!	!	!	!	!	!	!	!	!	!	!	!	!	!
4GG/	5_	f	4G/	.	2f 2G/	f	8G'/L	f	2.G\	nec	f	(2B\	nec	f	(2f\	nec-	f	(2dd\	nec	f	4GG/	.	4G/	.	4g/	.	[1g	.	[1g	.	2f/	.	2dd\	.	1ryy	1ryy
.	.	.	.	.	.	.	(8dd\	.	.	.	.	.	.	.	.	.	.	.	.	.	.	.	.	.	.	.	.	.	.	.	.	.	.	.	.	.
4BB/	.	.	4B/	.	.	.	8cc#X\	.	.	.	.	.	.	.	.	.	.	.	.	.	8GG/L	.	8G/L	.	8g/L	.	.	.	.	.	.	.	.	.	.	.
.	.	.	.	.	.	.	8dd\J)	.	.	.	.	.	.	.	.	.	.	.	.	.	8GG/J	.	8G/J	.	8g/J	.	.	.	.	.	.	.	.	.	.	.
4D/	7	.	4d\	.	4e 4G/	.	(8ccn\L	.	.	.	.	4c\)	.	.	4e\)	.	.	4cc\)	.	.	4GG/	.	4G/	.	4g/	.	.	.	.	.	4e/	.	4cc\	.	.	.
.	.	.	.	.	.	.	8b\	.	.	.	.	.	.	.	.	.	.	.	.	.	.	.	.	.	.	.	.	.	.	.	.	.	.	.	.	.
4G\	3	.	4g\	.	4d 4G/	.	8a\	.	4G\	lau-	.	4d\	lau-	.	4d\	-lau-	.	4b\	lau-	.	4GG/	.	4G/	.	4g/	.	.	.	.	.	4d/	.	4b\	.	.	.
.	.	.	.	.	.	.	8b\J)	.	.	.	.	.	.	.	.	.	.	.	.	.	.	.	.	.	.	.	.	.	.	.	.	.	.	.	.	.
!LO:LB:g=original	!	!	!	!	!	!	!	!	!	!	!	!	!	!	!	!	!	!	!	!	!	!	!	!	!	!	!	!	!	!	!	!	!	!	!	!
=26	=26	=26	=26	=26	=26	=26	=26	=26	=26	=26	=26	=26	=26	=26	=26	=26	=26	=26	=26	=26	=26	=26	=26	=26	=26	=26	=26	=26	=26	=26	=26	=26	=26	=26	=26	=26
2C\	8 3	.	2c\	.	2e 2G/	.	(8cc\L	.	2c\	-da-	.	2c\	-da-	.	2e\	-da-	.	(4.cc\	-da-	.	2C/	.	2c/	.	2g/	.	2g/]	.	2g/]	.	2e/	.	2cc\	.	1ryy	1ryy
.	.	.	.	.	.	.	8ee\)	.	.	.	.	.	.	.	.	.	.	.	.	.	.	.	.	.	.	.	.	.	.	.	.	.	.	.	.	.
.	5	.	.	.	.	.	(8g\	.	.	.	.	.	.	.	.	.	.	.	.	.	.	.	.	.	.	.	.	.	.	.	.	.	.	.	.	.
.	.	.	.	.	.	.	8cc\J)	.	.	.	.	.	.	.	.	.	.	8g\)	.	.	.	.	.	.	.	.	.	.	.	.	.	.	.	.	.	.
8C\L	5_	.	4c\	.	4e 4G/	.	(8e/L	.	2C/	-re	.	2c\	-re	.	2e\	-re	.	2g\	-re	.	4C/	.	4c/	.	4g/	.	4g'/	.	4g'/	.	4g'/	.	4gg'\	.	.	.
8E\	.	.	.	.	.	.	8g/)	.	.	.	.	.	.	.	.	.	.	.	.	.	.	.	.	.	.	.	.	.	.	.	.	.	.	.	.	.
8G\	.	.	4c\	.	4e 4G/	.	(8c/	.	.	.	.	.	.	.	.	.	.	.	.	.	4C/	.	4c/	.	4g/	.	4g'/	.	4g'/	.	4g'/	.	4gg'\	.	.	.
8c\J	.	.	.	.	.	.	8e/J)	.	.	.	.	.	.	.	.	.	.	.	.	.	.	.	.	.	.	.	.	.	.	.	.	.	.	.	.	.
=27	=27	=27	=27	=27	=27	=27	=27	=27	=27	=27	=27	=27	=27	=27	=27	=27	=27	=27	=27	=27	=27	=27	=27	=27	=27	=27	=27	=27	=27	=27	=27	=27	=27	=27	=27	=27
!	!	!	!	!	!	!	!LO:TX:t=P:problem=mixed beam	!	!	!	!	!	!	!	!	!	!	!	!	!	!	!	!	!	!	!	!	!	!	!	!	!	!	!	!	!
4C\	10_ 5_	.	4C/	.	2g 2G/	.	8G'/L	.	2.c\	nec	.	(2c\	nec	.	(2g\	nec-	.	(2ee\	nec	.	4C/	.	4c/	.	4g/	.	[1g	.	[1g	.	2g/	.	2ee\	.	1ryy	1ryy
.	.	.	.	.	.	.	(8ee\	.	.	.	.	.	.	.	.	.	.	.	.	.	.	.	.	.	.	.	.	.	.	.	.	.	.	.	.	.
4E\	.	.	4E/	.	.	.	8dd#X\	.	.	.	.	.	.	.	.	.	.	.	.	.	8C/L	.	8c/L	.	8g/L	.	.	.	.	.	.	.	.	.	.	.
.	.	.	.	.	.	.	8ee\J)	.	.	.	.	.	.	.	.	.	.	.	.	.	8C/J	.	8c/J	.	8g/J	.	.	.	.	.	.	.	.	.	.	.
4G\	5	.	4G/	.	4f 4G/	.	(8ddn\L	.	.	.	.	4d\)	.	.	4f\)	.	.	4dd\)	.	.	4C/	.	4c/	.	4g/	.	.	.	.	.	4f/	.	4dd\	.	.	.
.	.	.	.	.	.	.	8cc\	.	.	.	.	.	.	.	.	.	.	.	.	.	.	.	.	.	.	.	.	.	.	.	.	.	.	.	.	.
4c\|	.	.	4c/	.	4e 4G/	.	8b\	.	4c\	lau-	.	4e\	lau-	.	4e\	-lau-	.	4cc\	lau-	.	4C/	.	4c/	.	4g/	.	.	.	.	.	4e/	.	4cc\	.	.	.
.	.	.	.	.	.	.	8cc\J)	.	.	.	.	.	.	.	.	.	.	.	.	.	.	.	.	.	.	.	.	.	.	.	.	.	.	.	.	.
!	!	!	!	!	!	!	!LO:LB:g=original	!	!	!	!	!	!	!	!	!	!	!	!	!	!	!	!	!	!	!	!	!	!	!	!	!	!LO:LB:g=original	!	!	!
=28	=28	=28	=28	=28	=28	=28	=28	=28	=28	=28	=28	=28	=28	=28	=28	=28	=28	=28	=28	=28	=28	=28	=28	=28	=28	=28	=28	=28	=28	=28	=28	=28	=28	=28	=28	=28
2G\|	5	.	2G/	.	2f 2G/	.	(8dd\L	.	2G\	-da-	.	2d\	-da-	.	2f\	-da-	.	(4.dd\	-da-	.	2GG/	.	2G/	.	2g/	.	2g/]	.	2g/]	.	2f/	.	2dd\	.	1ryy	1ryy
.	.	.	.	.	.	.	8ff\)	.	.	.	.	.	.	.	.	.	.	.	.	.	.	.	.	.	.	.	.	.	.	.	.	.	.	.	.	.
.	.	.	.	.	.	.	(8b\	.	.	.	.	.	.	.	.	.	.	.	.	.	.	.	.	.	.	.	.	.	.	.	.	.	.	.	.	.
.	.	.	.	.	.	.	8dd\J)	.	.	.	.	.	.	.	.	.	.	8g\)	.	.	.	.	.	.	.	.	.	.	.	.	.	.	.	.	.	.
8G\L|	.	.	4G/	.	4f 4G/	.	(8g/L	.	2G\	-re	.	2d\	-re	.	2f\	-re	.	2g\	-re	.	4GG/	.	4G/	.	4g/	.	4g'/	.	4g'/	.	4g'/	.	4gg'\	.	.	.
8D\|	.	.	.	.	.	.	8b/)	.	.	.	.	.	.	.	.	.	.	.	.	.	.	.	.	.	.	.	.	.	.	.	.	.	.	.	.	.
8BB\|	.	.	4G/	.	4f 4G/	.	(8d/	.	.	.	.	.	.	.	.	.	.	.	.	.	4GG/	.	4G/	.	4g/	.	4g'/	.	4g'/	.	4g'/	.	4gg'\	.	.	.
8D\J|	.	.	.	.	.	.	8g/J)	.	.	.	.	.	.	.	.	.	.	.	.	.	.	.	.	.	.	.	.	.	.	.	.	.	.	.	.	.
!	!	!	!	!	!	!	!	!	!	!	!	!	!	!	!	!	!	!	!	!	!LO:LB:g=original	!	!LO:LB:g=original	!	!LO:LB:g=original	!	!	!	!	!	!	!	!	!	!	!
=29	=29	=29	=29	=29	=29	=29	=29	=29	=29	=29	=29	=29	=29	=29	=29	=29	=29	=29	=29	=29	=29	=29	=29	=29	=29	=29	=29	=29	=29	=29	=29	=29	=29	=29	=29	=29
!	!	!	!	!	!	!	!LO:TX:t=P:problem=mixed beam	!	!	!	!	!	!	!	!	!	!	!	!	!	!	!	!	!	!	!	!	!	!	!	!	!	!	!	!	!
4GG/	7_ 5_	.	2G/	.	2d 2G/	.	8G'/L	.	(2G\	nec	.	(2d\	nec	.	(2b\	nec-	.	(2ff\	nec	.	2GG/	.	2G/	.	2g/	.	2g/	.	2dd\	.	2b\	.	2ff\	.	1ryy	1ryy
.	.	.	.	.	.	.	(8ff\	.	.	.	.	.	.	.	.	.	.	.	.	.	.	.	.	.	.	.	.	.	.	.	.	.	.	.	.	.
4G\	.	.	.	.	.	.	8ee\	.	.	.	.	.	.	.	.	.	.	.	.	.	.	.	.	.	.	.	.	.	.	.	.	.	.	.	.	.
.	.	.	.	.	.	.	8ff\J)	.	.	.	.	.	.	.	.	.	.	.	.	.	.	.	.	.	.	.	.	.	.	.	.	.	.	.	.	.
4A\	5 3	.	4A/	.	4e 4G/	.	(8ee\L	.	4A\)	.	.	4e\)	.	.	4cc\)	.	.	4ee\)	.	.	4r	.	4r	.	4r	.	4r	.	4r	.	4cc\	.	4ee\	.	.	.
.	.	.	.	.	.	.	8dd\	.	.	.	.	.	.	.	.	.	.	.	.	.	.	.	.	.	.	.	.	.	.	.	.	.	.	.	.	.
4B\	3	.	4B/	.	4f 4G/	.	8cc#X\	.	4B\	lau-	.	4f\	lau-	.	4dd\	-lau-	.	4dd\	lau-	.	4GG/	.	4G/	.	4g/	.	4g/	.	4dd\	.	4dd\	.	4dd\	.	.	.
.	.	.	.	.	.	.	8dd\J)	.	.	.	.	.	.	.	.	.	.	.	.	.	.	.	.	.	.	.	.	.	.	.	.	.	.	.	.	.
!LO:LB:g=original	!	!	!LO:LB:g=original	!	!LO:LB:g=original	!	!	!	!	!	!	!	!	!	!	!	!	!LO:LB:g=original	!	!	!	!	!	!	!	!	!	!	!	!	!LO:LB:g=original	!	!	!	!	!
=30	=30	=30	=30	=30	=30	=30	=30	=30	=30	=30	=30	=30	=30	=30	=30	=30	=30	=30	=30	=30	=30	=30	=30	=30	=30	=30	=30	=30	=30	=30	=30	=30	=30	=30	=30	=30
4c\	3	.	4c/	.	4g 4G/	.	4ee\	.	(4c\	-da-	.	(4e\	-da-	.	(4g\	-da-	.	(4ee\	-da-	.	4C/	.	4c/	.	4cc\	.	4cc\	.	4ee\	.	4g'/	.	4ee\	.	1ryy	1ryy
4G#X\	5	.	4G#X/	.	4f/	.	4dd\	.	4G#X\	.	.	4B\	.	.	4f\	.	.	4dd\	.	.	4r	.	4r	.	4r	.	4r	.	4r	.	4f'/	.	4dd\	.	.	.
4A\	3	.	4A/	.	4e/	.	4ccn\	.	4A\)	.	.	4c\)	.	.	4e\)	.	.	4cc\)	.	.	2r	.	2r	.	2r	.	2r	.	2r	.	4e'/	.	4cc\	.	.	.
4F\	6	.	4F/	.	4f/	.	4dd\	.	4F\	-re	.	4A\	-re	.	4f\	-re	.	4dd\	-re	.	.	.	.	.	.	.	.	.	.	.	4f'/	.	4dd\	.	.	.
!	!	!	!	!	!	!	!	!	!LO:LB:g=original	!	!	!LO:LB:g=original	!	!	!LO:LB:g=original	!	!	!	!	!	!	!	!	!	!	!	!	!	!	!	!	!	!	!	!	!
=31	=31	=31	=31	=31	=31	=31	=31	=31	=31	=31	=31	=31	=31	=31	=31	=31	=31	=31	=31	=31	=31	=31	=31	=31	=31	=31	=31	=31	=31	=31	=31	=31	=31	=31	=31	=31
2Gn\	4	.	2Gn/	.	(8e/L	.	(8ee\L	.	(2Gn\	suf-	.	(2c\	suf-	.	[2g\	suf-	.	(2cc\	suf-	.	4C/	.	2e/	.	2cc\	.	2cc\	.	2ee\	.	2g/	.	2ee\	.	1ryy	1ryy
.	.	.	.	.	8g/	.	8gg\	.	.	.	.	.	.	.	.	.	.	.	.	.	.	.	.	.	.	.	.	.	.	.	.	.	.	.	.	.
.	.	.	.	.	8e/	.	8ee\	.	.	.	.	.	.	.	.	.	.	.	.	.	4r	.	.	.	.	.	.	.	.	.	.	.	.	.	.	.
.	.	.	.	.	8c/J)	.	8cc\J)	.	.	.	.	.	.	.	.	.	.	.	.	.	.	.	.	.	.	.	.	.	.	.	.	.	.	.	.	.
8GG/L	3_	.	8G/L	.	2f 2G/	.	(8b/L	.	4.GG/)	.	.	4.f\)	.	.	4.g\]	.	.	4.b\)	.	.	4GG/	.	2g/	.	2dd\	.	2g/	.	2dd\	.	4g/	.	2b\	.	.	.
8BB/	.	.	8B/	.	.	.	8g/	.	.	.	.	.	.	.	.	.	.	.	.	.	.	.	.	.	.	.	.	.	.	.	.	.	.	.	.	.
8D/	.	.	8d/	.	.	.	8f/	.	.	.	.	.	.	.	.	.	.	.	.	.	4r	.	.	.	.	.	.	.	.	.	4f/	.	.	.	.	.
8G/J	.	.	8g/J	.	.	.	8d/J)	.	8GG/	-fi-	.	8f\	-fi-	.	8g\	-fi-	.	8b\	-fi-	.	.	.	.	.	.	.	.	.	.	.	.	.	.	.	.	.
!	!	!	!	!	!	!	!LO:LB:g=original	!	!	!	!	!	!	!	!	!	!	!	!	!	!	!	!	!	!	!	!	!	!	!	!	!	!	!	!	!
=32	=32	=32	=32	=32	=32	=32	=32	=32	=32	=32	=32	=32	=32	=32	=32	=32	=32	=32	=32	=32	=32	=32	=32	=32	=32	=32	=32	=32	=32	=32	=32	=32	=32	=32	=32	=32
4C/	8 5 3	.	4c\	.	4e 4G/	.	(8c/L	.	4C/	-ciſ,	.	4e\	-ciſ	.	4g\	-cis	.	4cc\	-ciſ	.	4C/	.	4e/	.	4cc\	.	4e/	.	4cc\	.	4e/	.	4cc\	.	1ryy	1ryy
.	.	.	.	.	.	.	8e/	.	.	.	.	.	.	.	.	.	.	.	.	.	.	.	.	.	.	.	.	.	.	.	.	.	.	.	.	.
4r	.	.	4c\	.	4r	.	8g/	.	4r	.	.	4r	.	.	4r	.	.	4r	.	.	4r	.	4r	.	4r	.	4r	.	4r	.	4r	.	4r	.	.	.
.	.	.	.	.	.	.	8cc/J)	.	.	.	.	.	.	.	.	.	.	.	.	.	.	.	.	.	.	.	.	.	.	.	.	.	.	.	.	.
8G/L	5_ 3_	.	4d\	.	4f 4G/	.	(8g/L	.	4G\	nec	.	4B\	nec	.	4f\	nec	.	4dd\	nec	.	4GG/	.	4G/	.	4g/	.	4g/	.	4dd'\	.	4b\	.	4dd'\	.	.	.
8D/	.	.	.	.	.	.	8b/	.	.	.	.	.	.	.	.	.	.	.	.	.	.	.	.	.	.	.	.	.	.	.	.	.	.	.	.	.
8BB/	.	.	4d\	.	4f 4G/	.	8dd/	.	4G\	lau-	.	4B\	lau-	.	4f\	lau-	.	4dd\	lau-	.	4GG/	.	4G/	.	4g/	.	4g/	.	4dd'\	.	4b\	.	4dd'\	.	.	.
8GG/J	.	.	.	.	.	.	8ff/J)	.	.	.	.	.	.	.	.	.	.	.	.	.	.	.	.	.	.	.	.	.	.	.	.	.	.	.	.	.
!	!	!	!	!	!	!	!	!	!	!	!	!	!	!	!	!	!	!	!	!	!	!	!	!	!	!	!LO:LB:g=original	!	!LO:LB:g=original	!	!	!	!	!	!	!
=33	=33	=33	=33	=33	=33	=33	=33	=33	=33	=33	=33	=33	=33	=33	=33	=33	=33	=33	=33	=33	=33	=33	=33	=33	=33	=33	=33	=33	=33	=33	=33	=33	=33	=33	=33	=33
4C/	10	.	4c\	.	4g 4G/	.	(8ee\L	.	4c\	-da-	.	4c\	-da-	.	4g\	-da-	.	4ee\	-da-	.	4C/	.	2c/	.	2g/	.	2cc\	.	2ee\	.	2cc\	.	2ee\	.	1ryy	1ryy
.	.	.	.	.	.	.	8gg\	.	.	.	.	.	.	.	.	.	.	.	.	.	.	.	.	.	.	.	.	.	.	.	.	.	.	.	.	.
4c\	3	.	4r	.	4g 4G/	.	8ee\	.	4c\	-re	.	4c\	-re	.	4g\	-re	.	4ee\	-re	.	4C/	.	.	.	.	.	.	.	.	.	.	.	.	.	.	.
.	.	.	.	.	.	.	8cc\J)	.	.	.	.	.	.	.	.	.	.	.	.	.	.	.	.	.	.	.	.	.	.	.	.	.	.	.	.	.
4GG/	5_	.	4B/	.	4f 4G/	.	(8b/L	.	4.G\	ſuf-	.	4.d\	suf-	.	4.f\	suf-	.	4.b\	suf-	.	4GG/	.	4G/	.	4g/	.	4g/	.	4dd'\	.	4g/	.	4dd'\	.	.	.
.	.	.	.	.	.	.	8g/	.	.	.	.	.	.	.	.	.	.	.	.	.	.	.	.	.	.	.	.	.	.	.	.	.	.	.	.	.
4G\	.	.	4B/	.	4f 4G/	.	8f/	.	.	.	.	.	.	.	.	.	.	.	.	.	4GG/	.	4G/	.	4g/	.	4g/	.	4dd'\	.	4f/	.	4dd'\	.	.	.
.	.	.	.	.	.	.	8d/J)	.	8G\	-fi-	.	8d\	-fi-	.	8f\	-fi-	.	8b\	-fi-	.	.	.	.	.	.	.	.	.	.	.	.	.	.	.	.	.
!LO:LB:g=original	!	!	!	!	!LO:LB:g=original	!	!	!	!	!	!	!	!	!	!	!	!	!LO:LB:g=original	!	!	!	!	!	!	!	!	!	!	!	!	!	!	!	!	!	!
=34	=34	=34	=34	=34	=34	=34	=34	=34	=34	=34	=34	=34	=34	=34	=34	=34	=34	=34	=34	=34	=34	=34	=34	=34	=34	=34	=34	=34	=34	=34	=34	=34	=34	=34	=34	=34
4C/	8 5 3	.	4c\	.	4e 4G/	.	(8c/L	.	4C/	-ciſ,	.	4e\	-ciſ,	.	4g\	-cis,	.	4cc\	-cis	.	4C/	.	4c/	.	4g/	.	4e/	.	4cc\	.	4e/	.	4cc\	.	1ryy	1ryy
.	.	.	.	.	.	.	8e/	.	.	.	.	.	.	.	.	.	.	.	.	.	.	.	.	.	.	.	.	.	.	.	.	.	.	.	.	.
4r	.	.	4c\	.	4r	.	8g/	.	4r	.	.	4r	.	.	4r	.	.	4r	.	.	4r	.	4r	.	4r	.	4r	.	4r	.	4r	.	4r	.	.	.
.	.	.	.	.	.	.	8cc/J)	.	.	.	.	.	.	.	.	.	.	.	.	.	.	.	.	.	.	.	.	.	.	.	.	.	.	.	.	.
8G/L	5_ 3_	.	4d\	.	4f 4G/	.	(8g\L	.	4G\	nec	.	4B\	nec	.	4f\	nec	.	4dd\	nec	.	4GG/	.	4G/	.	4g/	.	4g/	.	4dd'\	.	4b\	.	4dd'\	.	.	.
8D/	.	.	.	.	.	.	8b\	.	.	.	.	.	.	.	.	.	.	.	.	.	.	.	.	.	.	.	.	.	.	.	.	.	.	.	.	.
8BB/	.	.	4d\	.	4f 4G/	.	8dd\	.	4G\	lau-	.	4B\	lau-	.	4f\	lau-	.	4dd\	lau-	.	4GG/	.	4g/	.	4g/	.	4g/	.	4dd'\	.	4b\	.	4dd'\	.	.	.
8GG/J	.	.	.	.	.	.	8ff\J)	.	.	.	.	.	.	.	.	.	.	.	.	.	.	.	.	.	.	.	.	.	.	.	.	.	.	.	.	.
!	!	!	!	!	!	!	!	!	!LO:LB:g=original	!	!	!	!	!	!LO:LB:g=original	!	!	!	!	!	!	!	!	!	!	!	!	!	!	!	!	!	!	!	!	!
=35	=35	=35	=35	=35	=35	=35	=35	=35	=35	=35	=35	=35	=35	=35	=35	=35	=35	=35	=35	=35	=35	=35	=35	=35	=35	=35	=35	=35	=35	=35	=35	=35	=35	=35	=35	=35
!	!	!	!LO:TX:t=P:problem=takt nr 35 zapisany repetycją	!	!	!	!	!	!	!	!	!	!	!	!	!	!	!	!	!	!	!	!	!	!	!	!	!	!	!	!	!	!	!	!	!
4C/	3_	.	4c\yy	.	4g 4G/	.	(8ee\L	.	4c\	-da-	.	4c\	-da-	.	4g\	-da-	.	4ee\	-da-	.	4C/	.	2e/	.	2cc\	.	2cc\	.	2ee\	.	2cc\	.	2ee\	ff	1ryy	1ryy
.	.	.	.	.	.	.	8gg\	.	.	.	.	.	.	.	.	.	.	.	.	.	.	.	.	.	.	.	.	.	.	.	.	.	.	.	.	.
4c\	.	.	4c\yy	.	4g 4G/	.	8ee\	.	4c\	-re	.	4c\	-re	.	4g\	-re	.	4ee\	-re	.	4C/	.	.	.	.	.	.	.	.	.	.	.	.	.	.	.
.	.	.	.	.	.	.	8cc\J)	.	.	.	.	.	.	.	.	.	.	.	.	.	.	.	.	.	.	.	.	.	.	.	.	.	.	.	.	.
!	!	!	!	!	!	!	!LO:LB:g=original	!	!	!	!	!	!	!	!	!	!	!	!	!	!	!	!	!	!	!	!	!	!	!	!	!	!	!	!	!
8G/L	8_ 5_ 3_	.	4d\yy	.	4f 4G/	.	(8b\L	.	4.G\	suf-	.	4.d\	suf-	.	4.f\	suf-	.	4.gg\	ſuf-	.	4GG/	.	4g/	.	4dd\	.	4g/	.	4dd'\	.	4b\	.	4gg'\	.	.	.
8D/	.	.	.	.	.	.	8dd\	.	.	.	.	.	.	.	.	.	.	.	.	.	.	.	.	.	.	.	.	.	.	.	.	.	.	.	.	.
8BB/	.	.	4d\yy	.	4f 4G/	.	8gg\	.	.	.	.	.	.	.	.	.	.	.	.	.	4GG/	.	4g/	.	4dd\	.	4g/	.	4dd'\	.	4dd\	.	4bb'\	.	.	.
8GG/J	.	.	.	.	.	.	8bb\J)	.	8G\	-fi-	.	8d\	-fi-	.	8f\	-fi-	.	8gg\	-fi-	.	.	.	.	.	.	.	.	.	.	.	.	.	.	.	.	.
=36	=36	=36	=36	=36	=36	=36	=36	=36	=36	=36	=36	=36	=36	=36	=36	=36	=36	=36	=36	=36	=36	=36	=36	=36	=36	=36	=36	=36	=36	=36	=36	=36	=36	=36	=36	=36
4C/	8 5 3	.	4c\	.	4ee 4cc 4e 4G/	.	4ccc 4ee 4g\	.	4C/	-cis.	.	4G/	-ciſ.	.	4e\	-cis.	.	4cc\	-cis..	.	4C/	.	4e/	.	4cc\	.	4e/	.	4cc\	.	4ee\	.	4ccc\	.	1ryy	1ryy
4r	.	.	4r	.	4r	.	4r	.	4r	.	.	4r	.	.	4r	.	.	4r	.	.	4r	.	4r	.	4r	.	4r	.	4r	.	4r	.	4r	.	.	.
2r	.	.	2r	.	2r	.	2r	.	2r	.	.	2r	.	.	2r	.	.	2r	.	.	2r	.	2r	.	2r	.	2r	.	2r	.	2r	.	2r	.	.	.
==	==	==	==	==	==	==	==	==	==	==	==	==	==	==	==	==	==	==	==	==	==	==	==	==	==	==	==	==	==	==	==	==	==	==	==	==
*-	*-	*-	*-	*-	*-	*-	*-	*-	*-	*-	*-	*-	*-	*-	*-	*-	*-	*-	*-	*-	*-	*-	*-	*-	*-	*-	*-	*-	*-	*-	*-	*-	*-	*-	*-	*-
!!!system-decoration: [(g1)][(g2)]<s9>[(g3)][(g4)]<s17>
!!!RDF**kern: > = above
!!!RDF**kern: < = below
!!!RDF**kern: | = vertical stroke
!!!RDF**dynam: f = "fr"
!!!RDF**dynam: ff = "ffr"
!!!ENC: Andrzej Borzym
!!!END: 2020-10-16
!!!ENC: Andrzej Kubiczek
!!!END: 2022-01-18
!!!YEC: Copyright 2022 Narodowy Instytut Fryderyka Chopina (https://polishscores.org)
!!!YEM: License CC-BY-4.0 (https://creativecommons.org/licenses/by/4.0)
